modules/hawcons-filled/icons/icon-65-smirking-face-sunglasses.svg

<?xml version="1.0" encoding="UTF-8" standalone="no"?>
<svg width="32px" height="32px" viewBox="0 0 32 32" version="1.1" xmlns="http://www.w3.org/2000/svg" xmlns:xlink="http://www.w3.org/1999/xlink" xmlns:sketch="http://www.bohemiancoding.com/sketch/ns">
    <!-- Generator: Sketch 3.0.3 (7891) - http://www.bohemiancoding.com/sketch -->
    <title>icon 65 smirking face sunglasses</title>
    <desc>Created with Sketch.</desc>
    <defs></defs>
    <g id="Page-1" stroke="none" stroke-width="1" fill="none" fill-rule="evenodd" sketch:type="MSPage">
        <g id="icon-65-smirking-face-sunglasses" sketch:type="MSArtboardGroup" fill="#929292">
            <path d="M16.5,10.7067832 C16.4371052,10.6970022 16.3740788,10.6853571 16.3099271,10.6720016 C13.1071965,9.86964699 8.59150578,9.90713614 6.26850774,10.2629847 C5.98799485,10.305955 5.94396034,11.4782082 6.1934345,11.5192238 C6.65256911,11.6880245 6.8484544,12.1092575 6.8484544,12.1092575 C6.8484544,12.1092575 6.98554874,12.4830367 7.38368577,14.0031105 C7.78182279,15.5231843 8.73097581,15.7054579 8.73097581,15.7054579 C8.73097581,15.7054579 9.8927002,15.966797 11.2328163,15.9667969 C12.5729323,15.9667969 13.3745868,15.9114041 14.232835,15.5211408 C15.0910833,15.1308775 15.4661959,14.0439815 15.4661959,14.0439815 C15.4661959,14.0439815 15.8986159,13.1074128 16.1963172,12.2236961 C16.241495,12.0895873 16.3597453,11.9984271 16.5,11.9400541 C16.6402547,11.9984271 16.758505,12.0895873 16.8036828,12.2236961 C17.1013841,13.1074128 17.5338041,14.0439815 17.5338041,14.0439815 C17.5338041,14.0439815 17.9089167,15.1308775 18.767165,15.5211408 C19.6254132,15.9114041 20.4270677,15.9667969 21.7671837,15.9667969 C23.1072998,15.966797 24.2690242,15.7054579 24.2690242,15.7054579 C24.2690242,15.7054579 25.2181772,15.5231843 25.6163142,14.0031105 C26.0144513,12.4830367 26.1515456,12.1092575 26.1515456,12.1092575 C26.1515456,12.1092575 26.3474309,11.6880245 26.8065655,11.5192238 C27.0560397,11.4782082 27.0120051,10.305955 26.7314923,10.2629847 C24.4084942,9.90713614 19.8928035,9.86964699 16.6900729,10.6720016 C16.6259212,10.6853571 16.5628948,10.6970022 16.5,10.7067832 L16.5,10.7067832 Z M16.5,29 C23.4035597,29 29,23.4035597 29,16.5 C29,9.59644029 23.4035597,4 16.5,4 C9.59644029,4 4,9.59644029 4,16.5 C4,23.4035597 9.59644029,29 16.5,29 Z M15.5186768,22 L18.5077842,22 C19.3319123,22 20,21.3228912 20,20.5046844 L20,20 L21,20 C21,20 21,20.5 21,21 C21,22 20,23 19,23 L15.5186768,23 L12,23 L12,22 L15.5186768,22 Z" id="smirking-face-sunglasses" sketch:type="MSShapeGroup"></path>
        </g>
    </g>
</svg>

<svg width="32" height="32" xmlns="http://www.w3.org/2000/svg"><path d="M16.5 10.707a3.783 3.783 0 0 1-.19-.035c-3.203-.802-7.718-.765-10.041-.409-.281.043-.325 1.215-.076 1.256.46.169.655.59.655.59s.138.374.536 1.894 1.347 1.702 1.347 1.702 1.162.262 2.502.262c1.34 0 2.142-.056 3-.446.858-.39 1.233-1.477 1.233-1.477s.433-.937.73-1.82c.045-.134.164-.226.304-.284.14.058.259.15.304.284.297.883.73 1.82.73 1.82s.375 1.087 1.233 1.477c.858.39 1.66.446 3 .446s2.502-.262 2.502-.262.95-.182 1.347-1.702c.398-1.52.536-1.894.536-1.894s.195-.421.655-.59c.249-.04.205-1.213-.076-1.256-2.323-.356-6.838-.393-10.04.409a3.783 3.783 0 0 1-.191.035zM16.5 29C23.404 29 29 23.404 29 16.5S23.404 4 16.5 4 4 9.596 4 16.5 9.596 29 16.5 29zm-.981-7h2.989c.824 0 1.492-.677 1.492-1.495V20h1v1c0 1-1 2-2 2h-7v-1h3.519z" fill="#929292" fill-rule="evenodd"/></svg>
